X: 1
T: Fisher's Hornpipe
R: hornpipe
M: 4/4
L: 1/8
K: Dmaj
(3ABc|dAFD GBAG|FDFD GBAG|FDFD GBAG|FEDF E2 (3ABc|
dAFD GBAG|FDFD GBAG|FAdf gece|f2 d2 d2:||
|: (3Bcd|ecAc egfe|fdAd fagf|ecAc egfe| d2 B2 A2 dc |
BGDG BdcB|AFDF A2d2|cdef gece|f2d2 d2:|]
